X:390
T:Duchess of Gordon's reel
A:Wyresdale, Lancashire
B:H.S.J. Jackson, 1823
L:1/8
M:C
O:England
Z:Richard Robinson 
%%RRN:Key signature not visible in mss, this is my guess
%%TUNEURL: http://www.leeds.ac.uk/music/Info/RRTuneBk/gettune/000005e7.html
%%ID:000005e7
K:A
e |\
(d/c/B/A/) ac dfBd | ce (d/c/B/A/) GBBe |\
(d/c/B/A/) ac dfBd | EAAB          cAA2 ::
E2|\
CEAc          DFBc | df (d/c/B/A/) GBBe | \
(d/c/B/A/) ec fdaf | ecBe          cA A2::
